X:35
T:Callaghan's
R:reel
M:4/4
L:1/8
K:Dmaj
dB|AFFE FEDE|~F3E FAdB|AFFE FEDE|FABA FEEB|
|AFFE FEDE|~F3E FAdB|AFFE FEDE|FAEG FD (3EFG||
|A3B A~F3|ABde feee-|fedB A/A/B dB|ABde fedB|
|AFAB A~F3|ABde feee-|fedB A/A/B dB|ABde fedB||

